X: 032218
T: Connaught Air
S: Fitzmaurice Collection
L: 1/8
M: 2/4
R: slow air
Q: 1/8=80
K: D
B | A<F F2 | d<F F2 | A<F FA | A3d |
A<F F2 | d<F F>D | E>DE>F | B3 :|
c | d<f B<d | A<d F// D//E//F//G//A//B//c//|
d>cB>^A | B3c | d>edB | A>BAF | E>DE>F | B3 :|
